X: 28336
T: Mug Of Brown Ale, The
R: jig
M: 6/8
K: Adorian
A2d|:eAA fef|gfg age|dBA GBG|BGB gfg|
eAA fef|gfg age|dBA GBG|1 BAA ABd:|2 BAA A2e||
efg a2a|a2b age|def gfg|b2a ged|
efg a2a|a2b age|dBA GBG|BAA A2e|
efg a2a|a2b age|def gfg|b2a ged|
efg a2b|c'2b age|dBA GBG|BAA ABd||

